!!!!SEGMENT: pl-kk--kk-i-2--029_senfl-ludwig--nesciens-mater.krn
!!!cenid: 16xx:1649
!!!COM: Senfl, Ludwig
!!!COM-rismid: pe20000365
!!!CDT: ~1489-~1543
!!!CNT: Swiss
!!!OTL: Nesciens Mater
!!!PDT:
!!!AGN: Sacred
!!!SMS-siglum: PL-Kk
!!!SMS-shelfmark: Kk.I.2
!!!SMS-shelfwork: 029 W
!!!NIFC-rismid: 300258047
!!!URL-scan: http://repozytorium.nifc.pl/skany/pl-kk-nut--i-2
!!!ONB-nifc: skany: C: 0055; A: 0157-0158; T: 0259; B: 0357;
!!!key: F:lyd
**kern	**text	**kern	**text	**kern	**text	**kern	**text	**text
*part4	*part4	*part3	*part3	*part2	*part2	*part1	*part1	*part1
*staff4	*staff4	*staff3	*staff3	*staff2	*staff2	*staff1	*staff1	*staff1
*I"BASVS	*	*I"TENOR	*	*I"ALTVS	*	*I"DISCANTVS	*	*
*I'B	*	*I'T	*	*I'A	*	*I'S	*	*
*Ibass	*	*Itenor	*	*Ialto	*	*Isoprn	*	*
*ICvox	*	*ICvox	*	*ICvox	*	*ICvox	*	*
*clefF4	*	*clefC5	*	*clefC4	*	*clefC1	*	*
*k[b-]	*	*k[b-]	*	*k[b-]	*	*k[b-]	*	*
*F:	*	*F:	*	*F:	*	*F:	*	*
*M2/1	*	*M2/1	*	*M2/1	*	*M2/1	*	*
*met(C)	*	*met(C)	*	*met(C)	*	*met(C)	*	*
=1-	=1-	=1-	=1-	=1-	=1-	=1-	=1-	=1-
00r	.	00r	.	0r	.	1.f	Neſ-	.
.	.	.	.	.	.	2f/	-ci-	.
=2-	=2-	=2-	=2-	=2-	=2-	=2-	=2-	=2-
.	.	.	.	1r	.	1f	-e(ns)	.
.	.	.	.	1.B-	Ne-	1g	ma-	.
=3-	=3-	=3-	=3-	=3-	=3-	=3-	=3-	=3-
00r	.	00r	.	.	.	1f	-ter	.
.	.	.	.	2B-/	-ſci-	.	.	.
.	.	.	.	1B-	-e(ns)	0g	v(ir)-	.
=4-	=4-	=4-	=4-	=4-	=4-	=4-	=4-	=4-
.	.	.	.	1c	ma-	.	.	.
*	*	*	*	*	*	*lig	*	*
.	.	.	.	1B-	-ter	1g	-go	.
=5-	=5-	=5-	=5-	=5-	=5-	=5-	=5-	=5-
0r	.	1.F	Ne-	1c	vir-	1a	.	.
*	*	*	*	*	*	*Xlig	*	*
*	*	*	*	*lig	*	*lig	*	*
.	.	.	.	1c	-go	1f	vi-	.
.	.	2F/	-ſci-	.	.	.	.	.
=6-	=6-	=6-	=6-	=6-	=6-	=6-	=6-	=6-
1.BB-	Neſ-	1F	-ens	1d	.	1f	.	.
*	*	*	*	*Xlig	*	*Xlig	*	*
.	.	1G	m(a-	1B-	vi-	4d/	.	.
.	.	.	.	.	.	4c/	.	.
2BB-/	-ci-	.	.	.	.	4d/	.	.
.	.	.	.	.	.	4e/	.	.
=7-	=7-	=7-	=7-	=7-	=7-	=7-	=7-	=7-
1BB-	-ens	1F	-te)r	1B-	-r(um)	2f/	.	.
.	.	.	.	.	.	1d	.	.
1C	ma-	1r	.	4G/	.	.	.	.
.	.	.	.	4F/	.	.	.	.
.	.	.	.	4G/	.	2c/	.	.
.	.	.	.	4A/	.	.	.	.
=8-	=8-	=8-	=8-	=8-	=8-	=8-	=8-	=8-
1BB-	-ter	2r	.	4B-/	.	1d	-r(um)	.
.	.	.	.	4A/	.	.	.	.
.	.	1G	v(ir)-	4G/	.	.	.	.
.	.	.	.	4F/	.	.	.	.
1C	v(ir)-	.	.	2E/	.	1e	v(ir)-	.
*	*	*lig	*	*	*	*	*	*
.	.	1G\	-go	2C/	.	.	.	.
=9-	=9-	=9-	=9-	=9-	=9-	=9-	=9-	=9-
*lig	*	*	*	*	*	*lig	*	*
1C	-go	.	.	1c	v(ir)-	1e	-go	.
.	.	1A	.	.	.	.	.	.
1D	.	.	.	1A	.	1f	.	.
*Xlig	*	*Xlig	*	*	*	*Xlig	*	*
.	.	1F\	vi-	.	.	.	.	.
=10-	=10-	=10-	=10-	=10-	=10-	=10-	=10-	=10-
1BB-	vi-	.	.	1B-	-go	1d	vi-	.
.	.	1F	-r(um)	.	.	.	.	.
1BB-	-r(um)	.	.	1B-	vi-	1d	-r(um)	.
*	*	*lig	*	*	*	*	*	*
.	.	1D/	.	.	.	.	.	.
=11-	=11-	=11-	=11-	=11-	=11-	=11-	=11-	=11-
2.GG/	.	.	.	2.B-\	-r(um)	0g	v(ir)-	.
.	.	1G	.	.	.	.	.	.
4AA/	.	.	.	4c\	.	.	.	.
2BB-/	.	.	.	2d\	.	.	.	.
*	*	*Xlig	*	*	*	*	*	*
1C/	.	2C/	.	1e\	.	.	.	.
=12-	=12-	=12-	=12-	=12-	=12-	=12-	=12-	=12-
*	*	*	*ij	*	*	*lig	*	*
.	.	2.G/	Nes-	.	.	0g	-go	.
4BB-/	.	.	.	4d\	.	.	.	.
4AA/	.	4A\	-ci-	4c\	.	.	.	.
1GG	.	1B-	-ens	2d\	.	.	.	.
.	.	.	.	2e\	.	.	.	.
=13-	=13-	=13-	=13-	=13-	=13-	=13-	=13-	=13-
*	*	*lig	*	*	*	*	*	*
!	!	!	!	!LO:SIC:v:t=custos d	!	!	!	!
0FF	.	1c	m(a-	0f	.	0a	.	.
.	.	1A	.	.	.	.	.	.
*	*	*Xlig	*	*	*	*Xlig	*	*
!	!	!	!	!LO:LB:g=original	!	!	!	!
=14-	=14-	=14-	=14-	=14-	=14-	=14-	=14-	=14-
*	*	*lig	*	*	*	*	*	*
1.BB-	.	1B-	-te)r	1.d	.	0f	vi-	.
.	.	1.F	.	.	.	.	.	.
2AA/	.	.	.	4c/	.	.	.	.
.	.	.	.	4B-/	.	.	.	.
*	*	*Xlig	*	*	*	*	*	*
=15-	=15-	=15-	=15-	=15-	=15-	=15-	=15-	=15-
1.D	.	.	.	2A/	.	2.f/	.	.
.	.	1A	v(ir)-	1.d	.	.	.	.
.	.	.	.	.	.	4e/	.	.
.	.	.	.	.	.	2f/	.	.
2GG/	.	2G/	-go	.	.	1g\	.	.
=16-	=16-	=16-	=16-	=16-	=16-	=16-	=16-	=16-
2C/	.	2E/	.	2G/	.	.	.	.
!	!	!LO:N:vis=1	!	!	!	!	!	!
2D/	.	2F\	vi-	2B-/	.	1f	.	.
!	!	!LO:SIC:v:t=custos F	!	!	!	!	!	!
1C	.	1G	.	1c	.	.	.	.
!	!	!	!	!	!	!LO:SIC:v:t=custos f	!	!
.	.	.	.	.	.	2e/	.	.
!	!	!LO:PB:g=original	!	!	!	!LO:LB:g=original	!	!
=17-	=17-	=17-	=17-	=17-	=17-	=17-	=17-	=17-
2r	.	0F	-r(um)	0A	.	00f\	-rum-	.
*	*	*	*Xij	*	*	*	*	*
1FF	pe-	.	.	.	.	.	.	.
!LO:SIC:v:t=custos FF	!	!	!	!	!	!	!	!
2FF/	-pe-	.	.	.	.	.	.	.
!LO:LB:g=original	!	!	!	!	!	!	!	!
=18-	=18-	=18-	=18-	=18-	=18-	=18-	=18-	=18-
2.FF/	.	2r	.	00r	.	.	.	.
.	.	1.F	pe-	.	.	.	.	.
4GG/	.	.	.	.	.	.	.	.
2AA/	.	.	.	.	.	.	.	.
2BB-/	.	.	.	.	.	.	.	.
=19-	=19-	=19-	=19-	=19-	=19-	=19-	=19-	=19-
4BB-/	.	2.F/	-pe-	.	.	00r	.	.
4C/	.	.	.	.	.	.	.	.
4D/	.	.	.	.	.	.	.	.
4E/	.	4G/	.	.	.	.	.	.
4F/	.	2A/	.	.	.	.	.	.
4E/	.	.	.	.	.	.	.	.
4D/	.	2.B-/	.	.	.	.	.	.
4C/	.	.	.	.	.	.	.	.
=20-	=20-	=20-	=20-	=20-	=20-	=20-	=20-	=20-
2D/	.	.	.	0r	.	.	.	.
.	.	4A/	.	.	.	.	.	.
2BB-/	.	1G	.	.	.	.	.	.
2C/	.	.	.	.	.	.	.	.
2D/	.	2F/	.	.	.	.	.	.
=21-	=21-	=21-	=21-	=21-	=21-	=21-	=21-	=21-
1GG	-rit	1G	.	1r	.	1r	.	.
0D	pe-	0A	-rit	0d	pe-	0f	pe-	.
=22-	=22-	=22-	=22-	=22-	=22-	=22-	=22-	=22-
.	.	.	.	.	.	.	.	.
*	*	*	*ij	*	*	*	*	*
1BB-	-pe-	1B-	pe-	1d	-pe-	1f	-pe-	.
=23-	=23-	=23-	=23-	=23-	=23-	=23-	=23-	=23-
0D	-rit	1.A	-pe-	0d	.	1.f	.	.
.	.	2B-\	.	.	.	2g/	.	.
=24-	=24-	=24-	=24-	=24-	=24-	=24-	=24-	=24-
*	*	*	*	*lig	*	*	*	*
1C	ſi-	1c	.	1e	.	1a	.	.
1BB-	-ne	1d	.	1f	.	1.b-	.	.
*	*	*	*	*Xlig	*	*	*	*
=25-	=25-	=25-	=25-	=25-	=25-	=25-	=25-	=25-
*	*	*	*	*lig	*	*	*	*
0E-X	do-	0G	.	1B-	.	.	.	.
.	.	.	.	.	.	2a/	.	.
.	.	.	.	1c	.	1.g	.	.
=26-	=26-	=26-	=26-	=26-	=26-	=26-	=26-	=26-
0D	-lo-	1.A	.	0d	.	.	.	.
.	.	.	.	.	.	4f/	.	.
.	.	.	.	.	.	4e/	.	.
.	.	.	.	.	.	1f	.	.
.	.	4G/	.	.	.	.	.	.
.	.	4F/	.	.	.	.	.	.
*	*	*	*	*Xlig	*	*	*	*
=27-	=27-	=27-	=27-	=27-	=27-	=27-	=27-	=27-
0C	.	2E/	.	0G	-rit	00.g	rit	.
.	.	2C/	.	.	.	.	.	.
.	.	1.c	.	.	.	.	.	.
=28-	=28-	=28-	=28-	=28-	=28-	=28-	=28-	=28-
0GG	re	.	.	1r	.	.	.	.
.	.	4B-/	.	.	.	.	.	.
.	.	4A/	.	.	.	.	.	.
*	*	*	*	*	*ij	*	*	*
.	.	1B-	.	1d	pe-	.	.	.
=29-	=29-	=29-	=29-	=29-	=29-	=29-	=29-	=29-
1r	.	2c\	.	0e	-pe-	.	.	.
.	.	2G/	.	.	.	.	.	.
2r	.	1c	-rit	.	.	.	.	.
*	*	*	*Xij	*	*	*	*	*
2C/	ſi-	.	.	.	.	.	.	.
=30-	=30-	=30-	=30-	=30-	=30-	=30-	=30-	=30-
1D	-ne	2r	.	0f	.	00r	.	.
.	.	2A/	ſi-	.	.	.	.	.
2r	.	1B-	-ne	.	.	.	.	.
2BB-/	ſi-	.	.	.	.	.	.	.
=31-	=31-	=31-	=31-	=31-	=31-	=31-	=31-	=31-
1C	-ne	2r	.	2.e\	.	.	.	.
.	.	2G/	ſi-	.	.	.	.	.
.	.	.	.	4d\	.	.	.	.
2AA/	do-	2A/	-ne	4c\	.	.	.	.
.	.	.	.	4B-\	.	.	.	.
!	!	!LO:SIC:v:t=custos G	!	!	!	!	!	!
2BB-/	.	2F/	do-	1d\	.	.	.	.
!	!	!LO:LB:g=original	!	!	!	!	!	!
=32-	=32-	=32-	=32-	=32-	=32-	=32-	=32-	=32-
2GG/	.	2G/	.	.	.	0r	.	.
2AA/	.	2C/	.	1c	.	.	.	.
2FF/	.	1D	.	.	.	.	.	.
2GG/	.	.	.	2B-/	.	.	.	.
=33-	=33-	=33-	=33-	=33-	=33-	=33-	=33-	=33-
2EE/	.	2C/	.	00c	-rit	1r	.	.
*	*	*	*	*	*Xij	*	*	*
2FF/	.	1F	.	.	.	.	.	.
!LO:SIC:v:t=custos FF	!	!	!	!	!	!	!	!
1BB-	-lo-	.	.	.	.	1g	ſi-	.
.	.	2E/	-lo-	.	.	.	.	.
!LO:LB:g=original	!	!	!	!	!	!	!	!
=34-	=34-	=34-	=34-	=34-	=34-	=34-	=34-	=34-
0FF	-re	00F	-re	.	.	0a	-ne	.
=35-	=35-	=35-	=35-	=35-	=35-	=35-	=35-	=35-
*	*ij	*	*	*	*	*	*	*
1BB-	si-	.	.	2r	.	0b-	do-	.
.	.	.	.	1d	ſi-	.	.	.
4BB-/	-ne	.	.	.	.	.	.	.
4C/	.	.	.	.	.	.	.	.
4D/	.	.	.	2d\	-ne	.	.	.
4Eny\	.	.	.	.	.	.	.	.
=36-	=36-	=36-	=36-	=36-	=36-	=36-	=36-	=36-
1F	.	0r	.	2d\	do-	2.a/	.	.
!	!	!	!	!LO:SIC:v:t=custos d	!	!	!	!
.	.	.	.	2c\	-lo-	.	.	.
.	.	.	.	.	.	4g/	.	.
!	!	!	!	!LO:LB:g=original	!	!	!	!
2BB-/	do-	.	.	2d\	.	4f/	.	.
.	.	.	.	.	.	4e/	.	.
1E\	.	.	.	2.e\	.	1g\	.	.
=37-	=37-	=37-	=37-	=37-	=37-	=37-	=37-	=37-
.	.	1r	.	.	.	.	.	.
.	.	.	.	4d\	.	.	.	.
2F\	.	.	.	1c	.	1f	.	.
1G	.	1G	ſi-	.	.	.	.	.
.	.	.	.	2B-/	.	2e/	-lo-	.
=38-	=38-	=38-	=38-	=38-	=38-	=38-	=38-	=38-
1F	.	0A	-ne	2.c\	.	00f\	-re	.
.	.	.	.	4B-/	.	.	.	.
1FF	-lo-	.	.	4A/	.	.	.	.
.	.	.	.	4G/	.	.	.	.
.	.	.	.	1F/	.	.	.	.
=39-	=39-	=39-	=39-	=39-	=39-	=39-	=39-	=39-
0GG	-re	0B-	do-	.	.	.	.	.
.	.	.	.	4E/	.	.	.	.
.	.	.	.	4D/	.	.	.	.
.	.	.	.	1E	.	.	.	.
=40-	=40-	=40-	=40-	=40-	=40-	=40-	=40-	=40-
2.FF/	ſi-	2.A\	.	4F/	.	00r	.	.
.	.	.	.	4G/	.	.	.	.
.	.	.	.	4A/	.	.	.	.
4GG/	-ne	4G/	.	4B-/	.	.	.	.
2AA/	do-	4F/	.	2c\	.	.	.	.
.	.	4E/	.	.	.	.	.	.
2BB-/	.	1G\	.	4B-/	.	.	.	.
.	.	.	.	4A/	.	.	.	.
=41-	=41-	=41-	=41-	=41-	=41-	=41-	=41-	=41-
2C/	.	.	.	4G/	.	.	.	.
.	.	.	.	4F/	.	.	.	.
2AA/	.	1F	.	2A/	.	.	.	.
2BB-/	.	.	.	1G	-re	.	.	.
2C/	lo-	2E/	-lo-	.	.	.	.	.
=42-	=42-	=42-	=42-	=42-	=42-	=42-	=42-	=42-
2D/	-re	0F	-re	2r	.	1r	.	.
*	*Xij	*	*	*	*	*	*	*
2.BB-/	ſal-	.	.	2d\	ſal-	.	.	.
.	.	.	.	1d	-ua-	1r	.	.
4C/	.	.	.	.	.	.	.	.
1.D\	-ua-	.	.	.	.	.	.	.
=43-	=43-	=43-	=43-	=43-	=43-	=43-	=43-	=43-
.	.	0r	.	2B-/	.	1f	do-	.
.	.	.	.	2G/	.	.	.	.
1E-X	-to-	.	.	2.B-/	-to-	0g	-lo-	.
.	.	.	.	4c\	.	.	.	.
=44-	=44-	=44-	=44-	=44-	=44-	=44-	=44-	=44-
1BB-	.	1r	.	1d	.	.	.	.
00BB-\	-rem	2r	.	00.d	-rum	0f	-re	.
.	.	1F\	ſal-	.	.	.	.	.
=45-	=45-	=45-	=45-	=45-	=45-	=45-	=45-	=45-
.	.	.	.	.	.	.	.	.
.	.	2F/	-ua-	.	.	.	.	.
.	.	1G	-to-	.	.	00r	.	.
=46-	=46-	=46-	=46-	=46-	=46-	=46-	=46-	=46-
.	.	1F	-r(em)	.	.	.	.	.
2r	.	1F	ſe-	.	.	.	.	.
1BB-/	ſe-	.	.	.	.	.	.	.
=47-	=47-	=47-	=47-	=47-	=47-	=47-	=47-	=47-
.	.	2F/	-cu-	.	.	.	.	.
2BB-/	-cu-	1F	-lo-	.	.	.	.	.
1BB-	-lo-	.	.	00r	.	00	.	.
.	.	2G/	.	.	.	.	.	.
=48-	=48-	=48-	=48-	=48-	=48-	=48-	=48-	=48-
2C/	.	2A\	.	.	.	.	.	.
!LO:SIC:v:t=custos GG	!	!	!	!	!	!	!	!
2D/	.	1B-	.	.	.	.	.	.
!LO:LB:g=original	!	!	!	!	!	!	!	!
2GG/	.	.	.	.	.	.	.	.
1D\	.	4A\	.	.	.	.	.	.
.	.	4G\	.	.	.	.	.	.
=49-	=49-	=49-	=49-	=49-	=49-	=49-	=49-	=49-
.	.	4A\	.	.	.	.	.	.
.	.	4B-\	.	.	.	.	.	.
2.C/	.	4c\	.	.	.	.	.	.
.	.	4B-\	.	.	.	.	.	.
.	.	4A\	.	0r	.	0r	.	.
4BB-/	.	4G\	.	.	.	.	.	.
4AA/	.	1G\	.	.	.	.	.	.
4GG/	.	.	.	.	.	.	.	.
=50-	=50-	=50-	=50-	=50-	=50-	=50-	=50-	=50-
1AA	.	.	.	.	.	.	.	.
!	!	!LO:SIC:v:t=custos G	!	!	!	!	!	!
.	.	2F/	.	.	.	.	.	.
!	!	!LO:LB:g=original	!	!	!	!LO:SIC:v:t=custos g	!	!
1GG	-rum	0G	-r(um)	1r	.	1r	.	.
!	!	!	!	!	!	!LO:PB:g=original	!	!
=51-	=51-	=51-	=51-	=51-	=51-	=51-	=51-	=51-
0C	Ip-	.	.	0e	Ip-	0g	[[sal-	I-
.	.	1c	Ip-	.	.	.	.	.
=52-	=52-	=52-	=52-	=52-	=52-	=52-	=52-	=52-
!	!	!	!	!LO:SIC:v:t=custos f	!	!	!	!
1C	-ſ(um)	1c	-ſ(um)	1e	-ſ(um)	1g	-va-	-pſ(um)
!	!	!	!	!LO:LB:g=original	!	!	!	!
0F	re-	0c	re-	0f	re-	0a	-to	Re-
=53-	=53-	=53-	=53-	=53-	=53-	=53-	=53-	=53-
.	.	.	.	.	.	.	.	.
0G	-gem	0B-	-gem	0d	-gem	0g	r(em)	-gem
=54-	=54-	=54-	=54-	=54-	=54-	=54-	=54-	=54-
.	.	.	.	.	.	.	.	.
1.D	an-	1.A	an-	1.d	an-	1.f	ſe-	an-
=55-	=55-	=55-	=55-	=55-	=55-	=55-	=55-	=55-
.	.	.	.	.	.	.	.	.
2D/	-ge-	2A\	-ge-	2d\	-ge-	2f/	-cu-	-ge-
1D	-lo-	1A	-lo-	1d	-lo-	1f	-lo]]	-lo-
=56-	=56-	=56-	=56-	=56-	=56-	=56-	=56-	=56-
*	*	*	*	*lig	*	*	*	*
1GG	-r(um)	1G	.	1B-	.	1d	.	.
*	*	*	*	*col	*	*	*	*
1D	.	2.F/	.	2.A\	.	1f	.	.
*	*	*	*	*Xlig	*	*	*	*
.	.	4G/	.	4B-\	.	.	.	.
*	*	*	*	*Xcol	*	*	*	*
=57-	=57-	=57-	=57-	=57-	=57-	=57-	=57-	=57-
2C/	.	4A/	.	2c\	.	2e/	.	.
.	.	4G/	.	.	.	.	.	.
2BB-/	.	2B-\	.	1F	.	2.d/	.	.
1C	.	2A\	.	.	.	.	.	.
.	.	.	.	.	.	4c/	.	.
.	.	2.G\	.	2E/	.	1c/	.	.
=58-	=58-	=58-	=58-	=58-	=58-	=58-	=58-	=58-
*lig	*	*	*	*	*	*	*	*
1D	.	.	.	1F	-r(um)	.	.	.
.	.	4F/	.	.	.	.	.	.
.	.	1F	.	.	.	2B-/	.	.
!LO:SIC:v:t=custos FF	!	!	!	!	!	!	!	!
1C	.	.	.	1G	ſo-	0c	.	-r(um)
.	.	2E/	.	.	.	.	.	.
*Xlig	*	*	*	*	*	*	*	*
=59-	=59-	=59-	=59-	=59-	=59-	=59-	=59-	=59-
*clefF5	*	*	*	*	*	*	*	*
*k[b-]	*	*	*	*	*	*	*	*
1FF	.	0F	-r(um)	1A	-la	.	.	.
2r	.	.	.	1c	vir-	0r	.	.
2.FF/	ſo-	.	.	.	.	.	.	.
=60-	=60-	=60-	=60-	=60-	=60-	=60-	=60-	=60-
.	.	1C	ſo-	1c	-go	.	.	.
4GG/	.	.	.	.	.	.	.	.
2AA/	.	.	.	.	.	.	.	.
1BB-	-la	1D	-la	2r	.	1r	.	.
*	*	*	*	*	*ij	*	*	*
.	.	.	.	2B-\	so-	.	.	.
=61-	=61-	=61-	=61-	=61-	=61-	=61-	=61-	=61-
1FF	v(ir)-	1F	vir-	1A	-la-	1c	.	ſo-
!LO:SIC:v:t=custos FF	!	!	!	!	!	!	!	!
1BB-	-go	1F	-go	2B-\	-vir-	1d	.	-la
.	.	.	.	1d\	.	.	.	.
=62-	=62-	=62-	=62-	=62-	=62-	=62-	=62-	=62-
*clefF4	*	*	*	*	*	*	*	*
*k[b-]	*	*	*	*	*	*	*	*
1r	.	2.D/	.	.	.	1f	.	v(ir)-
.	.	.	.	4c\	.	.	.	.
.	.	4E/	.	4B-\	.	.	.	.
1FF	ſo-	2F/	.	2A/	.	1f	.	-go
.	.	2A\	.	2c\	.	.	.	.
=63-	=63-	=63-	=63-	=63-	=63-	=63-	=63-	=63-
1GG	-la	2G/	.	2B-/	.	1r	.	.
.	.	4F/	.	4A/	.	.	.	.
.	.	4E/	.	4G/	.	.	.	.
1BB-	v(ir)-	0D	.	1F	-go	1r	.	.
*	*	*	*	*	*Xij	*	*	*
=64-	=64-	=64-	=64-	=64-	=64-	=64-	=64-	=64-
1BB-	-go	.	.	2r	.	1f	.	la-
.	.	.	.	1B-	lac-	.	.	.
*	*	*	*	*	*	*lig	*	*
!	!	!LO:SIC:v:t=custos F	!	!	!	!	!	!
0r	.	1r	.	.	.	1g	.	-cta-
.	.	.	.	1c\	-ta-	.	.	.
!	!	!LO:LB:g=original	!	!	!	!	!	!
=65-	=65-	=65-	=65-	=65-	=65-	=65-	=65-	=65-
.	.	1F	la-	.	.	1a	.	.
.	.	.	.	2A/	.	.	.	.
*	*	*lig	*	*	*	*Xlig	*	*
1r	.	1G	-cta-	2B-/	.	2g/	.	.
.	.	.	.	2G/	.	2b-/	.	.
=66-	=66-	=66-	=66-	=66-	=66-	=66-	=66-	=66-
!	!	!	!	!LO:SIC:v:t=custos B	!	!	!	!
1FF	lac-	1A	.	1c	-bat	2a/	.	.
.	.	.	.	.	.	2g/	.	.
!	!	!	!	!LO:PB:g=original	!	!	!	!
*lig	*	*Xlig	*	*	*	*	*	*
1GG	-ta-	2.G/	.	2r	.	1b-	.	.
*	*	*	*	*	*ij	*	*	*
.	.	.	.	2B-/	lac-	.	.	.
.	.	4F/	.	.	.	.	.	.
=67-	=67-	=67-	=67-	=67-	=67-	=67-	=67-	=67-
*	*	*	*	*lig	*	*	*	*
1AA	.	2E/	.	1c	-ta-	2a/	.	.
.	.	2C/	.	.	.	1cc	.	.
*Xlig	*	*	*	*	*	*	*	*
!LO:SIC:v:t=custos C	!	!	!	!	!	!	!	!
1GG	-bat	1G	-bat	1d	.	.	.	.
.	.	.	.	.	.	2b-\	.	.
*	*	*	*	*Xlig	*	*	*	*
!LO:LB:g=original	!	!	!	!	!	!	!	!
=68-	=68-	=68-	=68-	=68-	=68-	=68-	=68-	=68-
1C	lac-	1r	.	2c/	.	2.cc\	.	.
.	.	.	.	2e\	.	.	.	.
.	.	.	.	.	.	4b-/	.	.
*lig	*	*	*	*	*	*	*	*
1D	-ta-	1F	lac-	2f\	.	4a/	.	.
.	.	.	.	.	.	4g/	.	.
.	.	.	.	1d\	.	1a\	.	.
=69-	=69-	=69-	=69-	=69-	=69-	=69-	=69-	=69-
*	*	*lig	*	*	*	*	*	*
1E	.	1G	-ta-	.	.	.	.	.
.	.	.	.	2c/	.	1g	.	.
*Xlig	*	*	*	*	*	*	*	*
1D	-bat	1A	.	2d\	.	.	.	.
.	.	.	.	2D/	.	2f/	.	.
*	*	*Xlig	*	*	*	*	*	*
=70-	=70-	=70-	=70-	=70-	=70-	=70-	=70-	=70-
!	!	!	!	!	!	!LO:SIC:v:t=custos c	!	!
1r	.	1G	-bat	2E/	.	1g	.	-bat
.	.	.	.	2C/	.	.	.	.
!	!	!	!	!	!	!LO:LB:g=original	!	!
0r	.	1A	v-	1F	-bat	2c/	.	v-
*	*	*	*	*	*Xij	*	*	*
.	.	.	.	.	.	2.cc\	.	.
=71-	=71-	=71-	=71-	=71-	=71-	=71-	=71-	=71-
*	*	*lig	*	*	*	*	*	*
.	.	1A	-be-	2r	.	.	.	.
.	.	.	.	.	.	4b-\	.	.
.	.	.	.	1F	v-	1a	.	.
1r	.	1c	.	.	.	.	.	.
.	.	.	.	2E/	-be-	2g/	.	.
*	*	*Xlig	*	*	*	*	*	*
=72-	=72-	=72-	=72-	=72-	=72-	=72-	=72-	=72-
1D	v-	0A	-re	2F/	-re	1.a	.	.
.	.	.	.	2.f\	de	.	.	.
*lig	*	*	*	*	*	*	*	*
1D	-be-	.	.	.	.	.	.	.
.	.	.	.	4e\	.	.	.	.
.	.	.	.	1d\	ce-	2f/	.	-be-
=73-	=73-	=73-	=73-	=73-	=73-	=73-	=73-	=73-
1F	.	2r	.	.	.	0f	.	-re
.	.	1A	de	2c/	-lo	.	.	.
*Xlig	*	*	*	*	*	*	*	*
0D	-re	.	.	2.d/	.	.	.	.
.	.	2.F/	ce-	.	.	.	.	.
.	.	.	.	4c/	.	.	.	.
=74-	=74-	=74-	=74-	=74-	=74-	=74-	=74-	=74-
!	!	!LO:TX:b:t=P:problem:przypominający bemol BB-	!	!	!	!	!	!
.	.	.	.	4d\	.	1f	.	de
.	.	4E/	.	4e\	.	.	.	.
.	.	4D/	.	1f	.	.	.	.
.	.	4C/	.	.	.	.	.	.
00r	.	2BB-/	.	.	.	1g	.	ce-
.	.	2C/	.	2e\	.	.	.	.
=75-	=75-	=75-	=75-	=75-	=75-	=75-	=75-	=75-
.	.	1D	.	2f\	.	1f	.	-lo
.	.	.	.	2d\	ple-	.	.	.
.	.	2C/	-lo	1e	-no	2r	.	.
*	*	*	*	*	*	*	*	*ij
.	.	2.c\	ple-	.	.	1g\	.	u-
=76-	=76-	=76-	=76-	=76-	=76-	=76-	=76-	=76-
.	.	.	.	2r	.	.	.	.
.	.	4B-\	.	.	.	.	.	.
*	*	*	*	*	*ij	*	*	*
.	.	2A\	.	1c	ple-	1a	.	-be-
1r	.	2F/	.	.	.	.	.	.
.	.	2B-\	.	1d\	.	2g/	.	-re
=77-	=77-	=77-	=77-	=77-	=77-	=77-	=77-	=77-
1AA	de-	1A	.	.	.	1a	.	de-
.	.	.	.	2c/	.	.	.	.
*	*	*lig	*	*	*	*	*	*
!	!	!	!	!LO:SIC:v:t=custos B	!	!	!	!
0BB-	-ce-	0D	.	1d	.	1f	.	-ce-
!	!	!	!	!LO:LB:g=original	!	!	!	!
=78-	=78-	=78-	=78-	=78-	=78-	=78-	=78-	=78-
.	.	.	.	0.B-	-no	1f	.	-lo
*	*	*	*	*	*	*	*	*Xij
0GG	-lo	0G	.	.	.	2r	.	.
.	.	.	.	.	.	2.b-\	.	ple-
*	*	*Xlig	*	*	*	*	*	*
=79-	=79-	=79-	=79-	=79-	=79-	=79-	=79-	=79-
.	.	.	.	.	.	.	.	.
.	.	.	.	.	.	4a\	.	.
.	.	.	.	.	.	4g/	.	.
.	.	.	.	.	.	4f/	.	.
2r	.	1C	-no	2.c\	ple-	2e/	.	.
1C/	ple-	.	.	.	.	1g\	.	.
.	.	.	.	4d\	.	.	.	.
=80-	=80-	=80-	=80-	=80-	=80-	=80-	=80-	=80-
.	.	2r	.	2e\	.	.	.	.
!	!	!LO:SIC:v:t=custos D	!	!	!	!	!	!
*	*	*	*ij	*	*	*	*	*
1D	.	2F/	ple-	2d\	.	1f	.	.
!	!	!LO:LB:g=original	!	!	!	!	!	!
.	.	2D/	.	2B-/	.	.	.	.
2C/	.	1G\	.	2c\	.	2e/	.	.
=81-	=81-	=81-	=81-	=81-	=81-	=81-	=81-	=81-
1D	-no	.	.	1A	.	2d/	.	.
.	.	2F/	.	.	.	2a\	.	.
2r	.	2G/	.	2G/	.	2.b-\	.	.
1BB-/	de	1d\	.	2F/	.	.	.	.
.	.	.	.	.	.	4a\	.	.
=82-	=82-	=82-	=82-	=82-	=82-	=82-	=82-	=82-
.	.	.	.	2D/	.	4g\	.	.
.	.	.	.	.	.	4f/	.	.
1C	ce-	2c\	.	2E/	.	4e/	.	.
.	.	.	.	.	.	4d/	.	.
.	.	2A\	.	2C/	.	4e/	.	.
.	.	.	.	.	.	4c/	.	.
2BB-/	.	2B-\	.	2D/	.	1f/	.	.
=83-	=83-	=83-	=83-	=83-	=83-	=83-	=83-	=83-
1C	-lo	1G	.	2C/	.	.	.	.
.	.	.	.	2G/	-no	2e/	.	.
2r	.	[1F;<l	-no	2.A/	ple-	[1f;l	.	-no
*	*	*	*Xij	*	*	*	*	*
1AA/	ple-	.	.	.	.	.	.	.
.	.	.	.	4B-\	.	.	.	.
=84-	=84-	=84-	=84-	=84-	=84-	=84-	=84-	=84-
.	.	0F_	.	2c\	.	0f_	.	.
1BB-	.	.	.	1d	.	.	.	.
2AA/	.	.	.	2c\	.	.	.	.
=85-	=85-	=85-	=85-	=85-	=85-	=85-	=85-	=85-
1BB-	.	0F_	.	2d\	.	0f_	.	.
.	.	.	.	1D	.	.	.	.
[1FF;l	-no	.	.	.	.	.	.	.
.	.	.	.	2C/	.	.	.	.
=86-	=86-	=86-	=86-	=86-	=86-	=86-	=86-	=86-
0FF]	.	0F]	.	2D/	.	0f]	.	.
.	.	.	.	2C/	.	.	.	.
.	.	.	.	1c;<l	-no	.	.	.
*	*	*	*	*	*Xij	*	*	*
==	==	==	==	==	==	==	==	==
*-	*-	*-	*-	*-	*-	*-	*-	*-
!!!system-decoration: [(s1,s2,s3,s4)]
!!!RDF**kern: < = below
!!!RDF**kern: l = terminal long
!!!AIN: 1 alto 1 bass 1 soprn 1 tenor
!!!ENC: Berenika Jozajtis
!!!END: 2022-01-14
!!!ENC: Marta Lawrence
!!!END: 2022-01-22
